images/74278.svg

<?xml version="1.0" encoding="UTF-8"?>
<svg xmlns="http://www.w3.org/2000/svg" xmlns:xlink="http://www.w3.org/1999/xlink" width="300pt" height="300pt" viewBox="0 0 300 300" version="1.1">
<defs>
<g>
<symbol overflow="visible" id="glyph0-0">
<path style="stroke:none;" d="M 0.59375 2.125 L 0.59375 -8.46875 L 6.59375 -8.46875 L 6.59375 2.125 Z M 1.265625 1.453125 L 5.9375 1.453125 L 5.9375 -7.78125 L 1.265625 -7.78125 Z M 1.265625 1.453125 "/>
</symbol>
<symbol overflow="visible" id="glyph0-1">
<path style="stroke:none;" d="M 1.171875 -8.75 L 2.765625 -8.75 L 6.65625 -1.4375 L 6.65625 -8.75 L 7.796875 -8.75 L 7.796875 0 L 6.203125 0 L 2.328125 -7.3125 L 2.328125 0 L 1.171875 0 Z M 1.171875 -8.75 "/>
</symbol>
<symbol overflow="visible" id="glyph0-2">
<path style="stroke:none;" d="M 1.171875 -8.75 L 2.359375 -8.75 L 2.359375 -5.15625 L 6.65625 -5.15625 L 6.65625 -8.75 L 7.84375 -8.75 L 7.84375 0 L 6.65625 0 L 6.65625 -4.171875 L 2.359375 -4.171875 L 2.359375 0 L 1.171875 0 Z M 1.171875 -8.75 "/>
</symbol>
</g>
</defs>
<g id="surface34321">
<rect x="0" y="0" width="300" height="300" style="fill:rgb(100%,100%,100%);fill-opacity:1;stroke:none;"/>
<path style="fill:none;stroke-width:1.2;stroke-linecap:butt;stroke-linejoin:miter;stroke:rgb(0%,0%,0%);stroke-opacity:1;stroke-miterlimit:10;" d="M 222.59375 136.046875 L 216.03125 165.574219 "/>
<path style="fill:none;stroke-width:1.2;stroke-linecap:butt;stroke-linejoin:miter;stroke:rgb(0%,0%,0%);stroke-opacity:1;stroke-miterlimit:10;" d="M 228.882812 140.542969 L 223.636719 164.164062 "/>
<path style="fill:none;stroke-width:1.2;stroke-linecap:butt;stroke-linejoin:miter;stroke:rgb(0%,0%,100%);stroke-opacity:1;stroke-miterlimit:10;" d="M 252.703125 133.160156 L 237.648438 134.605469 "/>
<path style="fill:none;stroke-width:1.2;stroke-linecap:butt;stroke-linejoin:miter;stroke:rgb(0%,0%,0%);stroke-opacity:1;stroke-miterlimit:10;" d="M 237.648438 134.605469 L 222.59375 136.046875 "/>
<path style="fill:none;stroke-width:1.2;stroke-linecap:butt;stroke-linejoin:miter;stroke:rgb(0%,0%,0%);stroke-opacity:1;stroke-miterlimit:10;" d="M 216.03125 165.574219 L 229.058594 173.253906 "/>
<path style="fill:none;stroke-width:1.2;stroke-linecap:butt;stroke-linejoin:miter;stroke:rgb(0%,0%,100%);stroke-opacity:1;stroke-miterlimit:10;" d="M 229.058594 173.253906 L 242.085938 180.9375 "/>
<path style="fill:none;stroke-width:1.2;stroke-linecap:butt;stroke-linejoin:miter;stroke:rgb(0%,0%,0%);stroke-opacity:1;stroke-miterlimit:10;" d="M 216.03125 165.574219 L 188.289062 177.621094 "/>
<path style="fill:none;stroke-width:1.2;stroke-linecap:butt;stroke-linejoin:miter;stroke:rgb(0%,0%,100%);stroke-opacity:1;stroke-miterlimit:10;" d="M 242.085938 180.9375 L 253.417969 170.921875 "/>
<path style="fill:none;stroke-width:1.2;stroke-linecap:butt;stroke-linejoin:miter;stroke:rgb(0%,0%,0%);stroke-opacity:1;stroke-miterlimit:10;" d="M 253.417969 170.921875 L 264.75 160.90625 "/>
<path style=" stroke:none;fill-rule:nonzero;fill:rgb(100%,100%,100%);fill-opacity:1;" d="M 233.085938 173.9375 L 251.085938 173.9375 L 251.085938 187.9375 L 233.085938 187.9375 Z M 233.085938 173.9375 "/>
<g style="fill:rgb(0%,0%,100%);fill-opacity:1;">
  <use xlink:href="#glyph0-1" x="233.085938" y="185.076172"/>
  <use xlink:href="#glyph0-2" x="242.0625" y="185.076172"/>
</g>
<path style="fill:none;stroke-width:1.2;stroke-linecap:butt;stroke-linejoin:miter;stroke:rgb(0%,0%,0%);stroke-opacity:1;stroke-miterlimit:10;" d="M 264.75 160.90625 L 258.726562 147.03125 "/>
<path style="fill:none;stroke-width:1.2;stroke-linecap:butt;stroke-linejoin:miter;stroke:rgb(0%,0%,100%);stroke-opacity:1;stroke-miterlimit:10;" d="M 258.726562 147.03125 L 252.703125 133.160156 "/>
<path style="fill:none;stroke-width:1.2;stroke-linecap:butt;stroke-linejoin:miter;stroke:rgb(0%,0%,0%);stroke-opacity:1;stroke-miterlimit:10;" d="M 257.015625 160.964844 L 252.199219 149.867188 "/>
<path style="fill:none;stroke-width:1.2;stroke-linecap:butt;stroke-linejoin:miter;stroke:rgb(0%,0%,100%);stroke-opacity:1;stroke-miterlimit:10;" d="M 252.199219 149.867188 L 247.378906 138.769531 "/>
<path style=" stroke:none;fill-rule:nonzero;fill:rgb(100%,100%,100%);fill-opacity:1;" d="M 248.703125 126.160156 L 257.703125 126.160156 L 257.703125 140.160156 L 248.703125 140.160156 Z M 248.703125 126.160156 "/>
<g style="fill:rgb(0%,0%,100%);fill-opacity:1;">
  <use xlink:href="#glyph0-1" x="248.703125" y="137.298828"/>
</g>
<path style="fill:none;stroke-width:1.2;stroke-linecap:butt;stroke-linejoin:miter;stroke:rgb(0%,0%,0%);stroke-opacity:1;stroke-miterlimit:10;" d="M 188.289062 177.621094 L 163.984375 159.617188 "/>
<path style="fill:none;stroke-width:1.2;stroke-linecap:butt;stroke-linejoin:miter;stroke:rgb(0%,0%,0%);stroke-opacity:1;stroke-miterlimit:10;" d="M 163.984375 159.617188 L 150.109375 165.640625 "/>
<path style="fill:none;stroke-width:1.2;stroke-linecap:butt;stroke-linejoin:miter;stroke:rgb(0%,0%,100%);stroke-opacity:1;stroke-miterlimit:10;" d="M 150.109375 165.640625 L 136.238281 171.667969 "/>
<path style="fill:none;stroke-width:1.2;stroke-linecap:butt;stroke-linejoin:miter;stroke:rgb(0%,0%,100%);stroke-opacity:1;stroke-miterlimit:10;" d="M 136.238281 171.667969 L 124.085938 162.664062 "/>
<path style="fill:none;stroke-width:1.2;stroke-linecap:butt;stroke-linejoin:miter;stroke:rgb(0%,0%,0%);stroke-opacity:1;stroke-miterlimit:10;" d="M 124.085938 162.664062 L 111.933594 153.664062 "/>
<path style=" stroke:none;fill-rule:nonzero;fill:rgb(100%,100%,100%);fill-opacity:1;" d="M 127.238281 164.667969 L 145.238281 164.667969 L 145.238281 178.667969 L 127.238281 178.667969 Z M 127.238281 164.667969 "/>
<g style="fill:rgb(0%,0%,100%);fill-opacity:1;">
  <use xlink:href="#glyph0-1" x="127.238281" y="175.806641"/>
  <use xlink:href="#glyph0-2" x="136.214844" y="175.806641"/>
</g>
<path style="fill:none;stroke-width:1.2;stroke-linecap:butt;stroke-linejoin:miter;stroke:rgb(0%,0%,0%);stroke-opacity:1;stroke-miterlimit:10;" d="M 111.933594 153.664062 L 113.652344 138.636719 "/>
<path style="fill:none;stroke-width:1.2;stroke-linecap:butt;stroke-linejoin:miter;stroke:rgb(0%,0%,100%);stroke-opacity:1;stroke-miterlimit:10;" d="M 113.652344 138.636719 L 115.371094 123.613281 "/>
<path style="fill:none;stroke-width:1.2;stroke-linecap:butt;stroke-linejoin:miter;stroke:rgb(0%,0%,0%);stroke-opacity:1;stroke-miterlimit:10;" d="M 105.207031 149.847656 L 106.582031 137.828125 "/>
<path style="fill:none;stroke-width:1.2;stroke-linecap:butt;stroke-linejoin:miter;stroke:rgb(0%,0%,100%);stroke-opacity:1;stroke-miterlimit:10;" d="M 106.582031 137.828125 L 107.957031 125.808594 "/>
<path style="fill:none;stroke-width:1.2;stroke-linecap:butt;stroke-linejoin:miter;stroke:rgb(0%,0%,0%);stroke-opacity:1;stroke-miterlimit:10;" d="M 84.1875 165.710938 L 111.933594 153.664062 "/>
<path style="fill:none;stroke-width:1.2;stroke-linecap:butt;stroke-linejoin:miter;stroke:rgb(0%,0%,100%);stroke-opacity:1;stroke-miterlimit:10;" d="M 115.371094 123.613281 L 103.21875 114.609375 "/>
<path style="fill:none;stroke-width:1.2;stroke-linecap:butt;stroke-linejoin:miter;stroke:rgb(0%,0%,0%);stroke-opacity:1;stroke-miterlimit:10;" d="M 103.21875 114.609375 L 91.066406 105.609375 "/>
<path style=" stroke:none;fill-rule:nonzero;fill:rgb(100%,100%,100%);fill-opacity:1;" d="M 111.371094 116.613281 L 120.371094 116.613281 L 120.371094 130.613281 L 111.371094 130.613281 Z M 111.371094 116.613281 "/>
<g style="fill:rgb(0%,0%,100%);fill-opacity:1;">
  <use xlink:href="#glyph0-1" x="111.371094" y="127.751953"/>
</g>
<path style="fill:none;stroke-width:1.2;stroke-linecap:butt;stroke-linejoin:miter;stroke:rgb(0%,0%,0%);stroke-opacity:1;stroke-miterlimit:10;" d="M 91.066406 105.609375 L 77.191406 111.632812 "/>
<path style="fill:none;stroke-width:1.2;stroke-linecap:butt;stroke-linejoin:miter;stroke:rgb(0%,0%,100%);stroke-opacity:1;stroke-miterlimit:10;" d="M 77.191406 111.632812 L 63.320312 117.65625 "/>
<path style="fill:none;stroke-width:1.2;stroke-linecap:butt;stroke-linejoin:miter;stroke:rgb(0%,0%,0%);stroke-opacity:1;stroke-miterlimit:10;" d="M 91.125 113.34375 L 80.027344 118.160156 "/>
<path style="fill:none;stroke-width:1.2;stroke-linecap:butt;stroke-linejoin:miter;stroke:rgb(0%,0%,100%);stroke-opacity:1;stroke-miterlimit:10;" d="M 80.027344 118.160156 L 68.929688 122.980469 "/>
<path style="fill:none;stroke-width:1.2;stroke-linecap:butt;stroke-linejoin:miter;stroke:rgb(0%,0%,100%);stroke-opacity:1;stroke-miterlimit:10;" d="M 63.320312 117.65625 L 61.601562 132.683594 "/>
<path style="fill:none;stroke-width:1.2;stroke-linecap:butt;stroke-linejoin:miter;stroke:rgb(0%,0%,0%);stroke-opacity:1;stroke-miterlimit:10;" d="M 61.601562 132.683594 L 59.882812 147.707031 "/>
<path style=" stroke:none;fill-rule:nonzero;fill:rgb(100%,100%,100%);fill-opacity:1;" d="M 59.320312 110.65625 L 68.320312 110.65625 L 68.320312 124.65625 L 59.320312 124.65625 Z M 59.320312 110.65625 "/>
<g style="fill:rgb(0%,0%,100%);fill-opacity:1;">
  <use xlink:href="#glyph0-1" x="59.320312" y="121.794922"/>
</g>
<path style="fill:none;stroke-width:1.2;stroke-linecap:butt;stroke-linejoin:miter;stroke:rgb(0%,0%,0%);stroke-opacity:1;stroke-miterlimit:10;" d="M 59.882812 147.707031 L 84.1875 165.710938 "/>
<path style="fill:none;stroke-width:1.2;stroke-linecap:butt;stroke-linejoin:miter;stroke:rgb(0%,0%,0%);stroke-opacity:1;stroke-miterlimit:10;" d="M 58.078125 155.226562 L 77.523438 169.628906 "/>
<path style="fill:none;stroke-width:1.2;stroke-linecap:butt;stroke-linejoin:miter;stroke:rgb(0%,0%,100%);stroke-opacity:1;stroke-miterlimit:10;" d="M 35.25 165.261719 L 47.566406 156.484375 "/>
<path style="fill:none;stroke-width:1.2;stroke-linecap:butt;stroke-linejoin:miter;stroke:rgb(0%,0%,0%);stroke-opacity:1;stroke-miterlimit:10;" d="M 47.566406 156.484375 L 59.882812 147.707031 "/>
<path style="fill:none;stroke-width:1.2;stroke-linecap:butt;stroke-linejoin:miter;stroke:rgb(0%,0%,0%);stroke-opacity:1;stroke-miterlimit:10;" d="M 84.1875 165.710938 L 79.382812 180.050781 "/>
<path style="fill:none;stroke-width:1.2;stroke-linecap:butt;stroke-linejoin:miter;stroke:rgb(0%,0%,100%);stroke-opacity:1;stroke-miterlimit:10;" d="M 79.382812 180.050781 L 74.578125 194.390625 "/>
<path style="fill:none;stroke-width:1.2;stroke-linecap:butt;stroke-linejoin:miter;stroke:rgb(0%,0%,100%);stroke-opacity:1;stroke-miterlimit:10;" d="M 74.578125 194.390625 L 59.453125 194.25 "/>
<path style="fill:none;stroke-width:1.2;stroke-linecap:butt;stroke-linejoin:miter;stroke:rgb(0%,0%,0%);stroke-opacity:1;stroke-miterlimit:10;" d="M 59.453125 194.25 L 44.332031 194.113281 "/>
<path style=" stroke:none;fill-rule:nonzero;fill:rgb(100%,100%,100%);fill-opacity:1;" d="M 65.578125 187.390625 L 83.578125 187.390625 L 83.578125 201.390625 L 65.578125 201.390625 Z M 65.578125 187.390625 "/>
<g style="fill:rgb(0%,0%,100%);fill-opacity:1;">
  <use xlink:href="#glyph0-1" x="65.578125" y="198.529297"/>
  <use xlink:href="#glyph0-2" x="74.554688" y="198.529297"/>
</g>
<path style="fill:none;stroke-width:1.2;stroke-linecap:butt;stroke-linejoin:miter;stroke:rgb(0%,0%,0%);stroke-opacity:1;stroke-miterlimit:10;" d="M 44.332031 194.113281 L 39.789062 179.6875 "/>
<path style="fill:none;stroke-width:1.2;stroke-linecap:butt;stroke-linejoin:miter;stroke:rgb(0%,0%,100%);stroke-opacity:1;stroke-miterlimit:10;" d="M 39.789062 179.6875 L 35.25 165.261719 "/>
<path style="fill:none;stroke-width:1.2;stroke-linecap:butt;stroke-linejoin:miter;stroke:rgb(0%,0%,0%);stroke-opacity:1;stroke-miterlimit:10;" d="M 50.210938 189.089844 L 46.578125 177.550781 "/>
<path style="fill:none;stroke-width:1.2;stroke-linecap:butt;stroke-linejoin:miter;stroke:rgb(0%,0%,100%);stroke-opacity:1;stroke-miterlimit:10;" d="M 46.578125 177.550781 L 42.945312 166.007812 "/>
<path style=" stroke:none;fill-rule:nonzero;fill:rgb(100%,100%,100%);fill-opacity:1;" d="M 31.25 158.261719 L 40.25 158.261719 L 40.25 172.261719 L 31.25 172.261719 Z M 31.25 158.261719 "/>
<g style="fill:rgb(0%,0%,100%);fill-opacity:1;">
  <use xlink:href="#glyph0-1" x="31.25" y="169.400391"/>
</g>
</g>
</svg>

<svg xmlns="http://www.w3.org/2000/svg" xmlns:xlink="http://www.w3.org/1999/xlink" width="300pt" height="300pt" viewBox="0 0 300 300"><defs><symbol overflow="visible"><path d="M.594 2.125V-8.47h6V2.126zm.672-.672h4.671V-7.78h-4.67zm0 0"/></symbol><symbol overflow="visible" id="a"><path d="M1.172-8.75h1.594l3.89 7.313V-8.75h1.14V0H6.204L2.328-7.313V0H1.172zm0 0"/></symbol><symbol overflow="visible" id="b"><path d="M1.172-8.75H2.36v3.594h4.296V-8.75h1.188V0H6.656v-4.172H2.36V0H1.17zm0 0"/></symbol></defs><g><path fill="#fff" d="M0 0h300v300H0z"/><path d="M222.594 136.047l-6.563 29.527M228.883 140.543l-5.246 23.62" stroke-width="1.2" stroke="#000" stroke-miterlimit="10" fill="none"/><path d="M252.703 133.16l-15.055 1.445" stroke-width="1.2" stroke="#00f" stroke-miterlimit="10" fill="none"/><path d="M237.648 134.605l-15.054 1.442M216.03 165.574l13.03 7.68" stroke-width="1.2" stroke="#000" stroke-miterlimit="10" fill="none"/><path d="M229.06 173.254l13.026 7.684" stroke-width="1.2" stroke="#00f" stroke-miterlimit="10" fill="none"/><path d="M216.03 165.574l-27.74 12.047" stroke-width="1.2" stroke="#000" stroke-miterlimit="10" fill="none"/><path d="M242.086 180.938l11.332-10.016" stroke-width="1.2" stroke="#00f" stroke-miterlimit="10" fill="none"/><path d="M253.418 170.922l11.332-10.016" stroke-width="1.2" stroke="#000" stroke-miterlimit="10" fill="none"/><path d="M233.086 173.938h18v14h-18zm0 0" fill="#fff"/><g fill="#00f"><use xlink:href="#a" x="233.086" y="185.076"/><use xlink:href="#b" x="242.063" y="185.076"/></g><path d="M264.75 160.906l-6.023-13.875" stroke-width="1.2" stroke="#000" stroke-miterlimit="10" fill="none"/><path d="M258.727 147.03l-6.024-13.87" stroke-width="1.2" stroke="#00f" stroke-miterlimit="10" fill="none"/><path d="M257.016 160.965l-4.817-11.098" stroke-width="1.2" stroke="#000" stroke-miterlimit="10" fill="none"/><path d="M252.2 149.867l-4.82-11.097" stroke-width="1.2" stroke="#00f" stroke-miterlimit="10" fill="none"/><path d="M248.703 126.16h9v14h-9zm0 0" fill="#fff"/><use xlink:href="#a" x="248.703" y="137.299" fill="#00f"/><path d="M188.29 177.62l-24.306-18.003M163.984 159.617l-13.875 6.024" stroke-width="1.2" stroke="#000" stroke-miterlimit="10" fill="none"/><path d="M150.11 165.64l-13.872 6.028M136.238 171.668l-12.152-9.004" stroke-width="1.2" stroke="#00f" stroke-miterlimit="10" fill="none"/><path d="M124.086 162.664l-12.152-9" stroke-width="1.2" stroke="#000" stroke-miterlimit="10" fill="none"/><path d="M127.238 164.668h18v14h-18zm0 0" fill="#fff"/><g fill="#00f"><use xlink:href="#a" x="127.238" y="175.807"/><use xlink:href="#b" x="136.215" y="175.807"/></g><path d="M111.934 153.664l1.718-15.027" stroke-width="1.2" stroke="#000" stroke-miterlimit="10" fill="none"/><path d="M113.652 138.637l1.72-15.024" stroke-width="1.2" stroke="#00f" stroke-miterlimit="10" fill="none"/><path d="M105.207 149.848l1.375-12.02" stroke-width="1.2" stroke="#000" stroke-miterlimit="10" fill="none"/><path d="M106.582 137.828l1.375-12.02" stroke-width="1.2" stroke="#00f" stroke-miterlimit="10" fill="none"/><path d="M84.188 165.71l27.746-12.046" stroke-width="1.2" stroke="#000" stroke-miterlimit="10" fill="none"/><path d="M115.37 123.613l-12.15-9.004" stroke-width="1.2" stroke="#00f" stroke-miterlimit="10" fill="none"/><path d="M103.22 114.61l-12.154-9" stroke-width="1.2" stroke="#000" stroke-miterlimit="10" fill="none"/><path d="M111.37 116.613h9v14h-9zm0 0" fill="#fff"/><use xlink:href="#a" x="111.371" y="127.752" fill="#00f"/><path d="M91.066 105.61l-13.875 6.023" stroke-width="1.2" stroke="#000" stroke-miterlimit="10" fill="none"/><path d="M77.19 111.633l-13.87 6.023" stroke-width="1.2" stroke="#00f" stroke-miterlimit="10" fill="none"/><path d="M91.125 113.344l-11.098 4.816" stroke-width="1.2" stroke="#000" stroke-miterlimit="10" fill="none"/><path d="M80.027 118.16l-11.097 4.82M63.32 117.656l-1.718 15.028" stroke-width="1.2" stroke="#00f" stroke-miterlimit="10" fill="none"/><path d="M61.602 132.684l-1.72 15.023" stroke-width="1.2" stroke="#000" stroke-miterlimit="10" fill="none"/><path d="M59.32 110.656h9v14h-9zm0 0" fill="#fff"/><use xlink:href="#a" x="59.32" y="121.795" fill="#00f"/><path d="M59.883 147.707l24.304 18.004M58.078 155.227l19.445 14.402" stroke-width="1.2" stroke="#000" stroke-miterlimit="10" fill="none"/><path d="M35.25 165.262l12.316-8.778" stroke-width="1.2" stroke="#00f" stroke-miterlimit="10" fill="none"/><path d="M47.566 156.484l12.317-8.777M84.188 165.71l-4.805 14.34" stroke-width="1.2" stroke="#000" stroke-miterlimit="10" fill="none"/><path d="M79.383 180.05l-4.805 14.34M74.578 194.39l-15.125-.14" stroke-width="1.2" stroke="#00f" stroke-miterlimit="10" fill="none"/><path d="M59.453 194.25l-15.12-.137" stroke-width="1.2" stroke="#000" stroke-miterlimit="10" fill="none"/><path d="M65.578 187.39h18v14h-18zm0 0" fill="#fff"/><g fill="#00f"><use xlink:href="#a" x="65.578" y="198.529"/><use xlink:href="#b" x="74.555" y="198.529"/></g><path d="M44.332 194.113l-4.543-14.425" stroke-width="1.2" stroke="#000" stroke-miterlimit="10" fill="none"/><path d="M39.79 179.688l-4.54-14.426" stroke-width="1.2" stroke="#00f" stroke-miterlimit="10" fill="none"/><path d="M50.21 189.09l-3.632-11.54" stroke-width="1.2" stroke="#000" stroke-miterlimit="10" fill="none"/><path d="M46.578 177.55l-3.633-11.542" stroke-width="1.2" stroke="#00f" stroke-miterlimit="10" fill="none"/><path d="M31.25 158.262h9v14h-9zm0 0" fill="#fff"/><use xlink:href="#a" x="31.25" y="169.4" fill="#00f"/></g></svg>
